X:287
T:Splendid Isolation
C:Brendan McGlinchey
R:reel
M:4/4
L:1/8
K:Gdor
FGGF GdcA | G2AG FGAc | dAcA GABc | dggf g3a |
bgag fdd2| f2eg fdcA | G2AG FGAc | dAcA G3z ::
g2ag fdd2| gfdc Acdc | AGG2 Acdc | AGG2 F4|
FGGF GdcA | G2AG FGAc | dgg2 fgag | fdcA G4 :|
